icons/stopwatch-24.svg

<svg width="24" height="24" viewBox="0 0 24 24" xmlns="http://www.w3.org/2000/svg">
  <path fill-rule="evenodd" clip-rule="evenodd" d="M10.25 0C9.83579 0 9.5 0.335786 9.5 0.75C9.5 1.16421 9.83579 1.5 10.25 1.5H11.25V2.7777C9.11504 2.936 7.16664 3.76462 5.61451 5.05385L4.28033 3.71967C3.98744 3.42678 3.51256 3.42678 3.21967 3.71967C2.92678 4.01256 2.92678 4.48744 3.21967 4.78033L4.53516 6.09582C2.95832 7.8635 2 10.1948 2 12.75C2 18.2728 6.47715 22.75 12 22.75C17.5228 22.75 22 18.2728 22 12.75C22 10.1948 21.0417 7.86351 19.4648 6.09582L20.7803 4.78033C21.0732 4.48744 21.0732 4.01256 20.7803 3.71967C20.4874 3.42678 20.0126 3.42678 19.7197 3.71967L18.3855 5.05385C16.8334 3.76462 14.885 2.936 12.75 2.7777V1.5H13.75C14.1642 1.5 14.5 1.16421 14.5 0.75C14.5 0.335786 14.1642 0 13.75 0H10.25ZM12 21.25C16.6944 21.25 20.5 17.4444 20.5 12.75C20.5 8.05558 16.6944 4.25 12 4.25C7.30558 4.25 3.5 8.05558 3.5 12.75C3.5 17.4444 7.30558 21.25 12 21.25ZM16.0303 8.71967C16.3232 9.01256 16.3232 9.48744 16.0303 9.78033L13.6487 12.1619C13.7143 12.3457 13.75 12.5437 13.75 12.75C13.75 13.7165 12.9665 14.5 12 14.5C11.0335 14.5 10.25 13.7165 10.25 12.75C10.25 11.7835 11.0335 11 12 11C12.2063 11 12.4043 11.0357 12.5881 11.1013L14.9697 8.71967C15.2626 8.42678 15.7374 8.42678 16.0303 8.71967Z"/>
</svg>

<svg xmlns="http://www.w3.org/2000/svg" width="24" height="24" viewBox="0 0 24 24"><path fill-rule="evenodd" d="M10.25 0a.75.75 0 000 1.5h1v1.278a9.955 9.955 0 00-5.635 2.276L4.28 3.72a.75.75 0 00-1.06 1.06l1.315 1.316A9.962 9.962 0 002 12.75c0 5.523 4.477 10 10 10s10-4.477 10-10a9.962 9.962 0 00-2.535-6.654L20.78 4.78a.75.75 0 00-1.06-1.06l-1.334 1.334a9.955 9.955 0 00-5.636-2.276V1.5h1a.75.75 0 000-1.5h-3.5zM12 21.25a8.5 8.5 0 100-17 8.5 8.5 0 000 17zm4.03-12.53a.75.75 0 010 1.06l-2.381 2.382a1.75 1.75 0 11-1.06-1.06l2.38-2.382a.75.75 0 011.061 0z"/></svg>
